X:1
T:the Earl of Fife
T:the Earl of Fife
T:William Marshall
C:William Marshall
%%score { ( 1 2 ) 3 }
L:1/8
M:4/4
K:Bb
V:1 treble 
V:2 treble 
V:3 bass 
V:1
 b | f<d-d>!wedge!B c>de>g | f<d-d>!wedge!f g2 (gb) | f<d-d>!wedge!c [FB]>c{Bc}dB | %4
 Gc B/A/G/F/ [DB]2 [DB]b | f<d-d>!wedge!B c>de>g | f<d-d>!wedge!f g2 (gb) | %7
 [Ff]<d-d>!wedge!c [FB]>c{Bc}[Fd]B | Gc B/A/G/F/ B2 B || d | B>F G/F/E/D/ F>G Bd | %11
 f<dB>d [Ac]2 [Ac]d/c/ | [DB]>F G/F/E/D/ B>c d<b | f<dc>d B2 Bd/c/ | B>F G/F/E/D/ F>G Bd | %15
 f<d[FB]d [Ac]2 ([Fc]e) | (3def (3gab (3gfe (3dcB | G>c A/B/c/A/ B2 B |] %18
V:2
 x | x8 | x8 | x8 | x8 | x8 | x8 | x8 | x2 E2 D2 D || x | D2- D2 D2 D2 | x8 | x8 | x8 | D2 D2 D4 | %15
 x8 | x8 | E2 E2 D2 D |] %18
V:3
 z | [B,,B,]2 [D,B,]2 [F,C]2 [F,A,C]2 | [B,D]2 [B,D]2 [B,E]2 [B,E]2 | %3
 [B,D]2 [F,B,]E, [D,B,]2 [B,,B,]2 | [E,,E,]2 [F,,F,]2 [B,,B,]2 [B,,B,] z | %5
 [B,,B,]2 [D,B,]2 [F,C]2 [F,A,C]2 | [B,D]2 [B,D]2 [B,E]2 [B,E]2 | %7
 [B,D]2 [F,B,]E, [D,B,]2 [B,,B,]2 | [E,,E,]2 [F,,F,]2 [B,,B,]2 [B,,B,] || z | %10
 [B,,B,]2 [B,,B,]2 [B,,B,]2 [B,,B,]2 | [F,B,]2 [F,B,]2 [F,C]2 [F,C]2 | %12
 [B,,B,]2 [_A,B,]2 [G,B,]2 [F,B,][=E,B,_D] | [F,B,=D]2 [F,CE]2 [B,D]2 [D,B,] z | %14
 [B,,B,]2 [B,,B,]2 [B,,B,]2 [B,,B,]2 | [F,B,]2 [F,B,]2 [F,C]2 [A,,A,]2 | %16
 [B,,B,]2 [E,B,]2 [D,B,]2 [B,,B,]2 | [E,,E,]2 [F,,F,]2 [B,,B,]2 [B,,B,] |] %18

